fs/text_bullet_list_square_24_filled.svg

<svg viewBox="0 0 24 24" fill="none" xmlns="http://www.w3.org/2000/svg" height="1em" width="1em">
  <path d="M5.25 3C4.00736 3 3 4.00736 3 5.25V18.75C3 19.9926 4.00736 21 5.25 21H18.75C19.9926 21 21 19.9926 21 18.75V5.25C21 4.00736 19.9926 3 18.75 3H5.25ZM8.75 8.25C8.75 8.80228 8.30228 9.25 7.75 9.25C7.19772 9.25 6.75 8.80228 6.75 8.25C6.75 7.69772 7.19772 7.25 7.75 7.25C8.30228 7.25 8.75 7.69772 8.75 8.25ZM10.5 8.25C10.5 7.83579 10.8358 7.5 11.25 7.5H16.75C17.1642 7.5 17.5 7.83579 17.5 8.25C17.5 8.66421 17.1642 9 16.75 9H11.25C10.8358 9 10.5 8.66421 10.5 8.25ZM10.5001 12C10.5001 11.5858 10.8358 11.25 11.2501 11.25H16.7499C17.1642 11.25 17.4999 11.5858 17.4999 12C17.4999 12.4142 17.1642 12.75 16.7499 12.75H11.2501C10.8358 12.75 10.5001 12.4142 10.5001 12ZM11.2501 15H16.7499C17.1642 15 17.4999 15.3358 17.4999 15.75C17.4999 16.1642 17.1642 16.5 16.7499 16.5H11.2501C10.8358 16.5 10.5001 16.1642 10.5001 15.75C10.5001 15.3358 10.8358 15 11.2501 15ZM7.75 13C7.19772 13 6.75 12.5523 6.75 12C6.75 11.4477 7.19772 11 7.75 11C8.30228 11 8.75 11.4477 8.75 12C8.75 12.5523 8.30228 13 7.75 13ZM8.75 15.75C8.75 16.3023 8.30228 16.75 7.75 16.75C7.19772 16.75 6.75 16.3023 6.75 15.75C6.75 15.1977 7.19772 14.75 7.75 14.75C8.30228 14.75 8.75 15.1977 8.75 15.75Z" fill="#212121"/>
</svg>

<svg viewBox="0 0 24 24" fill="none" xmlns="http://www.w3.org/2000/svg" height="1em" width="1em">
  <path d="M5.25 3A2.25 2.25 0 0 0 3 5.25v13.5A2.25 2.25 0 0 0 5.25 21h13.5A2.25 2.25 0 0 0 21 18.75V5.25A2.25 2.25 0 0 0 18.75 3H5.25Zm3.5 5.25a1 1 0 1 1-2 0 1 1 0 0 1 2 0Zm1.75 0a.75.75 0 0 1 .75-.75h5.5a.75.75 0 0 1 0 1.5h-5.5a.75.75 0 0 1-.75-.75Zm0 3.75a.75.75 0 0 1 .75-.75h5.5a.75.75 0 1 1 0 1.5h-5.5a.75.75 0 0 1-.75-.75Zm.75 3h5.5a.75.75 0 1 1 0 1.5h-5.5a.75.75 0 1 1 0-1.5Zm-3.5-2a1 1 0 1 1 0-2 1 1 0 0 1 0 2Zm1 2.75a1 1 0 1 1-2 0 1 1 0 0 1 2 0Z" fill="#212121"/>
</svg>
